icons/down_h.svg

<svg viewBox="0 0 24 24" xmlns="http://www.w3.org/2000/svg" fill="none"><path d="M19.7542532,11 C20.133949,11 20.4477442,11.2821539 20.4974066,11.6482294 L20.5042532,11.75 L20.5042532,18.7508698 C20.5042532,20.4839012 19.1477984,21.9001157 17.4386771,21.995725 L17.2542532,22.0008698 L6.25425321,22.0008698 C4.52122175,22.0008698 3.10500728,20.644415 3.009398,18.9352937 L3.00425321,18.7508698 L3.00425321,11.75 C3.00425321,11.3357864 3.34003964,11 3.75425321,11 C4.13394897,11 4.44774417,11.2821539 4.49740659,11.6482294 L4.50425321,11.75 L4.50425321,18.7508698 C4.50425321,19.6690431 5.21136348,20.4220621 6.110726,20.4950686 L6.25425321,20.5008698 L17.2542532,20.5008698 C18.1724266,20.5008698 18.9254455,19.7937595 18.998452,18.894397 L19.0042532,18.7508698 L19.0042532,11.75 C19.0042532,11.3357864 19.3400396,11 19.7542532,11 Z M6.21965009,7.21630242 L11.2158892,2.21968974 C11.4819978,1.95356128 11.8983813,1.92919891 12.1920019,2.1467202 L12.2761321,2.21923321 L17.280984,7.21584589 C17.5741184,7.50849773 17.5745096,7.9833713 17.2818577,8.2765057 C17.0158106,8.54299153 16.599167,8.56754081 16.3053762,8.3499283 L16.2211979,8.27737947 L12.4982532,4.561 L12.4991393,16.254946 C12.4991393,16.6346418 12.2169854,16.948437 11.8509099,16.9980994 L11.7491393,17.004946 C11.3694436,17.004946 11.0556484,16.7227922 11.0059859,16.3567166 L10.9991393,16.254946 L10.9982532,4.558 L7.28034991,8.27692294 C7.0140933,8.54319946 6.59743053,8.56742109 6.30381089,8.3495776 L6.21968974,8.27696259 C5.95341322,8.01070598 5.9291916,7.59404321 6.14703508,7.30042357 L6.21965009,7.21630242 L11.2158892,2.21968974 L6.21965009,7.21630242 Z" fill="#304d66"></path></svg>

<svg width="24" height="24" fill="none" viewBox="0 0 24 24" xmlns="http://www.w3.org/2000/svg"><path d="M19.754 11a.75.75 0 0 1 .743.648l.007.102v7a3.25 3.25 0 0 1-3.065 3.246l-.185.005h-11a3.25 3.25 0 0 1-3.245-3.066l-.005-.184V11.75a.75.75 0 0 1 1.493-.102l.007.102v7a1.75 1.75 0 0 0 1.607 1.745l.143.006h11a1.75 1.75 0 0 0 1.744-1.607l.006-.143V11.75a.75.75 0 0 1 .75-.75ZM6.22 7.216l4.996-4.996a.75.75 0 0 1 .976-.073l.084.072 5.005 4.997a.75.75 0 0 1-.976 1.134l-.084-.073-3.723-3.716.001 11.694a.75.75 0 0 1-.648.743l-.102.007a.75.75 0 0 1-.743-.648l-.007-.102V4.558L7.28 8.277a.75.75 0 0 1-.976.073l-.084-.073a.75.75 0 0 1-.073-.977l.073-.084 4.996-4.996L6.22 7.216Z" fill="#304d66"/></svg>
